X:2056
T:Arrane y phelican 
C:Traditional carol
O:Isle of Man
N:See also KV 213 and 242.(final 4 bars added by Tony Hopson who did the original abc transcription) 
Z:Clague collection
B:Kiaull Vannin #56 
M:4/4 
Q:80
L:1/4 
K:G 
A B|c2 B A|B c d B|A E A G|A2 A2|c d e/f/ g|f2 e/d/ c| 
dd gf|e2e2|f d g e|c B !fermata!eA|F E AG|A2||AB|c2B A|B c dB|AEA G|A4|| 

